src/images/svg/symbols/markets-stocks-and-indices/american-stocks/stocks-e-bay-inc.svg

<svg width="32" height="32" viewBox="0 0 32 32" fill="none" xmlns="http://www.w3.org/2000/svg">
<path d="M0 16C0 7.16344 7.16344 0 16 0C24.8366 0 32 7.16344 32 16C32 24.8366 24.8366 32 16 32C7.16344 32 0 24.8366 0 16Z" fill="#F2F3F4"/>
<path d="M7.105 13.0996C5.41 13.0996 4 13.8121 4 15.9796C4 17.6971 4.945 18.8071 7.15 18.8071C9.73749 18.8071 9.90249 17.1046 9.90249 17.1046H8.64999C8.5239 17.4102 8.3004 17.6655 8.01423 17.831C7.72805 17.9965 7.39523 18.0628 7.0675 18.0196C6.83204 18.0351 6.59592 18.0018 6.37386 17.922C6.15181 17.8422 5.9486 17.7174 5.77689 17.5556C5.60518 17.3937 5.46867 17.1982 5.37587 16.9813C5.28306 16.7643 5.23596 16.5306 5.2375 16.2946H9.99999V15.6646C9.99999 14.6371 9.39999 13.0996 7.105 13.0996ZM7.06 13.9021C7.27635 13.8799 7.49496 13.9037 7.70151 13.9718C7.90806 14.0399 8.0979 14.1509 8.2586 14.2974C8.41931 14.444 8.54727 14.6228 8.6341 14.8222C8.72093 15.0216 8.76468 15.2371 8.76249 15.4546H5.2675C5.28172 15.2344 5.33957 15.0193 5.43768 14.8216C5.53578 14.624 5.67219 14.4478 5.83898 14.3034C6.00576 14.1589 6.19959 14.0491 6.40921 13.9802C6.61882 13.9113 6.84004 13.8848 7.06 13.9021Z" fill="#E53338"/>
<path d="M10 11V17.69C10 18.0725 10 18.605 10 18.605H11.2C11.2278 18.3559 11.2428 18.1056 11.245 17.855C11.5053 18.1816 11.8418 18.4392 12.225 18.6053C12.6081 18.7714 13.0262 18.8408 13.4425 18.8075C13.8219 18.8259 14.201 18.7644 14.5552 18.6271C14.9094 18.4898 15.2308 18.2797 15.4987 18.0104C15.7667 17.7411 15.9751 17.4185 16.1105 17.0636C16.2459 16.7087 16.3054 16.3293 16.285 15.95C16.3023 15.5731 16.2405 15.1968 16.1034 14.8454C15.9664 14.4939 15.7572 14.175 15.4894 13.9093C15.2216 13.6436 14.9011 13.437 14.5485 13.3028C14.196 13.1685 13.8192 13.1097 13.4425 13.13C11.77 13.13 11.2525 14.03 11.2525 14.03V11.03L10 11ZM13.105 13.94C13.3633 13.935 13.6197 13.9842 13.8578 14.0842C14.096 14.1842 14.3106 14.3329 14.4879 14.5208C14.6651 14.7086 14.8012 14.9315 14.8872 15.1751C14.9732 15.4186 15.0074 15.6775 14.9875 15.935C15.0212 16.2011 14.9979 16.4714 14.9191 16.7278C14.8403 16.9842 14.7078 17.221 14.5305 17.4222C14.3531 17.6235 14.1349 17.7847 13.8904 17.8951C13.6459 18.0055 13.3808 18.0626 13.1125 18.0626C12.8442 18.0626 12.579 18.0055 12.3346 17.8951C12.0901 17.7847 11.8719 17.6235 11.6945 17.4222C11.5172 17.221 11.3847 16.9842 11.3059 16.7278C11.2271 16.4714 11.2038 16.2011 11.2375 15.935C11.2186 15.6764 11.254 15.4168 11.3414 15.1727C11.4287 14.9286 11.5661 14.7055 11.7448 14.5176C11.9235 14.3298 12.1395 14.1814 12.3789 14.0819C12.6183 13.9824 12.8758 13.9341 13.135 13.94H13.105Z" fill="#3466B1"/>
<path d="M19.2541 13.0996C16.7041 13.0996 16.5391 14.4946 16.5391 14.7121H17.8066C17.8066 14.7121 17.8741 13.9021 19.1641 13.9021C20.0041 13.9021 20.6641 14.2846 20.6641 15.0196V15.2821H19.1641C17.1916 15.2821 16.1641 15.8596 16.1641 17.0296C16.1641 18.1996 17.1316 18.8071 18.4141 18.8071C20.1916 18.8071 20.7616 17.8321 20.7616 17.8321C20.7616 18.2221 20.7616 18.5821 20.7616 18.5821H21.8866C21.8866 18.5821 21.8491 18.1021 21.8491 17.8321V15.1846C21.8491 13.4596 20.4541 13.0996 19.2241 13.0996H19.2541ZM20.6491 16.0996V16.4521C20.6491 16.9021 20.3716 18.0421 18.7141 18.0421C17.8066 18.0421 17.4166 17.5846 17.4166 17.0596C17.4166 16.0771 18.7291 16.0696 20.6491 16.0696V16.0996Z" fill="#F3AF1C"/>
<path d="M21.1895 13.3184H22.622L24.6694 17.4134L26.7094 13.3184H27.9994L24.2494 20.6158H22.922L24.0019 18.5834L21.1895 13.3334V13.3184Z" fill="#86B940"/>
</svg>

<svg width="32" height="32" fill="none" xmlns="http://www.w3.org/2000/svg"><path d="M0 16C0 7.163 7.163 0 16 0s16 7.163 16 16-7.163 16-16 16S0 24.837 0 16Z" fill="#F2F3F4"/><path d="M7.105 13.1C5.41 13.1 4 13.812 4 15.98c0 1.717.945 2.827 3.15 2.827 2.587 0 2.752-1.702 2.752-1.702H8.65a1.5 1.5 0 0 1-1.583.915 1.718 1.718 0 0 1-1.83-1.725H10v-.63c0-1.028-.6-2.565-2.895-2.565Zm-.045.802a1.545 1.545 0 0 1 1.702 1.553H5.267a1.665 1.665 0 0 1 1.793-1.553Z" fill="#E53338"/><path d="M10 11v7.605h1.2c.028-.25.043-.5.045-.75a2.55 2.55 0 0 0 2.198.953 2.715 2.715 0 0 0 2.842-2.858 2.699 2.699 0 0 0-2.842-2.82c-1.673 0-2.19.9-2.19.9v-3L10 11Zm3.105 2.94a1.852 1.852 0 0 1 1.883 1.995 1.89 1.89 0 1 1-3.75 0 1.86 1.86 0 0 1 1.897-1.995h-.03Z" fill="#3466B1"/><path d="M19.254 13.1c-2.55 0-2.715 1.395-2.715 1.612h1.268s.067-.81 1.357-.81c.84 0 1.5.383 1.5 1.118v.262h-1.5c-1.972 0-3 .578-3 1.748s.968 1.777 2.25 1.777c1.778 0 2.348-.975 2.348-.975v.75h1.125s-.038-.48-.038-.75v-2.647c0-1.725-1.395-2.085-2.625-2.085h.03Zm1.395 3v.352c0 .45-.277 1.59-1.935 1.59-.907 0-1.297-.457-1.297-.982 0-.983 1.312-.99 3.232-.99v.03Z" fill="#F3AF1C"/><path d="M21.19 13.318h1.432l2.047 4.095 2.04-4.095H28l-3.75 7.298h-1.327l1.08-2.033-2.813-5.25v-.015Z" fill="#86B940"/></svg>
